assets/images/hippo.svg

<?xml version="1.0" encoding="UTF-8"?>
<svg xmlns="http://www.w3.org/2000/svg" xmlns:xlink="http://www.w3.org/1999/xlink" width="75px" height="px" viewBox="0 0 75 92" version="1.1">
<g id="surface1">
<path style="fill-rule:nonzero;fill:rgb(57.647059%,61.568627%,67.45098%);fill-opacity:1;stroke-width:4;stroke-linecap:round;stroke-linejoin:round;stroke:rgb(0.392157%,0.392157%,0.392157%);stroke-opacity:1;stroke-miterlimit:4;" d="M 221.064329 147.273728 C 221.087558 207.781351 172.038293 256.834328 111.525229 256.834328 C 51.02378 256.834328 1.974515 207.781351 1.986129 147.273728 C 1.974515 86.766104 51.02378 37.70145 111.525229 37.70145 C 172.038293 37.70145 221.087558 86.766104 221.064329 147.273728 Z M 221.064329 147.273728 " transform="matrix(0.336317,0,0,0.334539,0,0.000658588)"/>
<path style=" stroke:none;fill-rule:nonzero;fill:rgb(0.392157%,0.392157%,0.392157%);fill-opacity:0.313725;" d="M 74.207031 52.476562 C 67.199219 67.761719 51.695312 78.394531 33.703125 78.394531 C 23.503906 78.394531 14.113281 74.976562 6.609375 69.234375 C 13.175781 79.28125 24.558594 85.921875 37.507812 85.921875 C 56.769531 85.921875 72.582031 71.21875 74.207031 52.476562 Z M 74.207031 52.476562 "/>
<path style="fill-rule:nonzero;fill:rgb(57.647059%,61.568627%,67.45098%);fill-opacity:1;stroke-width:4;stroke-linecap:round;stroke-linejoin:round;stroke:rgb(0.392157%,0.392157%,0.392157%);stroke-opacity:1;stroke-miterlimit:4;" d="M 14.483645 247.773364 C 14.47203 270.449127 32.858245 273.333223 55.530319 273.333223 C 78.214007 273.333223 96.600222 270.449127 96.588607 247.773364 C 96.600222 225.085924 77.44743 212.568716 55.530319 206.695437 C 21.45252 197.564414 14.47203 225.085924 14.483645 247.773364 Z M 14.483645 247.773364 " transform="matrix(0.336317,0,0,0.334539,0,0.000658588)"/>
<path style=" stroke:none;fill-rule:nonzero;fill:rgb(0.392157%,0.392157%,0.392157%);fill-opacity:0.313725;" d="M 23.046875 70.652344 C 24.9375 73.117188 26.097656 76.191406 26.097656 79.988281 C 26.097656 88.960938 19.914062 90.109375 12.285156 90.109375 C 11.105469 90.109375 9.964844 90.074219 8.871094 89.992188 C 11.371094 91.203125 14.839844 91.445312 18.675781 91.445312 C 26.304688 91.445312 32.488281 90.472656 32.484375 82.882812 C 32.488281 76.855469 28.417969 72.980469 23.046875 70.652344 Z M 23.046875 70.652344 "/>
<path style="fill-rule:nonzero;fill:rgb(100%,100%,100%);fill-opacity:1;stroke-width:4;stroke-linecap:round;stroke-linejoin:round;stroke:rgb(0.392157%,0.392157%,0.392157%);stroke-opacity:1;stroke-miterlimit:4;" d="M 87.494225 260.559132 C 89.143526 266.689294 84.242083 268.83777 77.946866 270.519186 C 71.651649 272.212279 66.34369 272.796104 64.694389 266.665941 C 63.056704 260.535779 66.831511 254.207116 73.126728 252.514023 C 79.421945 250.832607 85.85654 254.428969 87.494225 260.559132 Z M 87.494225 260.559132 " transform="matrix(0.336317,0,0,0.334539,0,0.000658588)"/>
<path style="fill-rule:nonzero;fill:rgb(100%,100%,100%);fill-opacity:1;stroke-width:4;stroke-linecap:round;stroke-linejoin:round;stroke:rgb(0.392157%,0.392157%,0.392157%);stroke-opacity:1;stroke-miterlimit:4;" d="M 46.052649 267.20306 C 44.414963 273.333223 39.107003 272.737722 32.811786 271.056305 C 26.504954 269.363213 21.615127 267.214737 23.264428 261.096251 C 24.902113 254.966088 31.336708 251.35805 37.631925 253.051142 C 43.927142 254.732558 47.701949 261.072898 46.052649 267.20306 Z M 46.052649 267.20306 " transform="matrix(0.336317,0,0,0.334539,0,0.000658588)"/>
<path style="fill-rule:nonzero;fill:rgb(100%,100%,100%);fill-opacity:1;stroke-width:4;stroke-linecap:round;stroke-linejoin:round;stroke:rgb(0.392157%,0.392157%,0.392157%);stroke-opacity:1;stroke-miterlimit:4;" d="M 66.332075 266.187205 C 66.34369 272.539221 61.058959 273.3449 54.531447 273.3449 C 48.015548 273.3449 42.730818 272.527545 42.742433 266.187205 C 42.742433 259.846865 48.015548 254.697529 54.531447 254.697529 C 61.058959 254.697529 66.34369 259.846865 66.332075 266.187205 Z M 66.332075 266.187205 " transform="matrix(0.336317,0,0,0.334539,0,0.000658588)"/>
<path style="fill-rule:nonzero;fill:rgb(57.647059%,61.568627%,67.45098%);fill-opacity:1;stroke-width:4;stroke-linecap:round;stroke-linejoin:round;stroke:rgb(0.392157%,0.392157%,0.392157%);stroke-opacity:1;stroke-miterlimit:4;" d="M 208.590042 247.773364 C 208.601657 270.449127 190.215442 273.333223 167.531754 273.333223 C 144.848066 273.333223 126.473466 270.449127 126.473466 247.773364 C 126.473466 225.085924 145.626257 212.568716 167.531754 206.695437 C 201.609553 197.564414 208.601657 225.085924 208.590042 247.773364 Z M 208.590042 247.773364 " transform="matrix(0.336317,0,0,0.334539,0,0.000658588)"/>
<path style="fill-rule:nonzero;fill:rgb(100%,100%,100%);fill-opacity:1;stroke-width:4;stroke-linecap:round;stroke-linejoin:round;stroke:rgb(0.392157%,0.392157%,0.392157%);stroke-opacity:1;stroke-miterlimit:4;" d="M 200.494533 260.559132 C 202.143833 266.689294 197.254006 268.83777 190.958789 270.519186 C 184.651957 272.212279 179.343997 272.796104 177.706311 266.665941 C 176.068626 260.535779 179.831818 254.207116 186.127035 252.514023 C 192.422252 250.832607 198.856847 254.428969 200.494533 260.559132 Z M 200.494533 260.559132 " transform="matrix(0.336317,0,0,0.334539,0,0.000658588)"/>
<path style="fill-rule:nonzero;fill:rgb(100%,100%,100%);fill-opacity:1;stroke-width:4;stroke-linecap:round;stroke-linejoin:round;stroke:rgb(0.392157%,0.392157%,0.392157%);stroke-opacity:1;stroke-miterlimit:4;" d="M 159.052956 267.20306 C 157.403656 273.333223 152.095696 272.737722 145.800479 271.056305 C 139.505262 269.363213 134.615435 267.214737 136.25312 261.096251 C 137.902421 254.966088 144.3254 251.35805 150.620617 253.051142 C 156.915835 254.732558 160.690642 261.072898 159.052956 267.20306 Z M 159.052956 267.20306 " transform="matrix(0.336317,0,0,0.334539,0,0.000658588)"/>
<path style="fill-rule:nonzero;fill:rgb(100%,100%,100%);fill-opacity:1;stroke-width:4;stroke-linecap:round;stroke-linejoin:round;stroke:rgb(0.392157%,0.392157%,0.392157%);stroke-opacity:1;stroke-miterlimit:4;" d="M 179.343997 266.187205 C 179.343997 272.539221 174.059267 273.3449 167.543369 273.3449 C 161.015856 273.3449 155.742741 272.527545 155.742741 266.187205 C 155.742741 259.846865 161.027471 254.697529 167.543369 254.697529 C 174.059267 254.697529 179.343997 259.846865 179.343997 266.187205 Z M 179.343997 266.187205 " transform="matrix(0.336317,0,0,0.334539,0,0.000658588)"/>
<path style=" stroke:none;fill-rule:nonzero;fill:rgb(0.392157%,0.392157%,0.392157%);fill-opacity:0.313725;" d="M 62.574219 68.753906 C 66.125 71.480469 67.0625 77.007812 67.0625 81.882812 C 67.066406 89.734375 60.667969 90.738281 52.777344 90.738281 C 51.066406 90.738281 49.433594 90.683594 47.914062 90.53125 C 50.246094 91.273438 53.167969 91.441406 56.34375 91.441406 C 63.96875 91.441406 70.15625 90.476562 70.152344 82.886719 C 70.152344 76.945312 68.710938 70.011719 62.574219 68.753906 Z M 62.574219 68.753906 "/>
<path style=" stroke:none;fill-rule:nonzero;fill:rgb(0.392157%,0.392157%,0.392157%);fill-opacity:0.313725;" d="M 71.902344 41.070312 C 74.253906 55.121094 63.582031 66.394531 40.988281 68.921875 C 22.039062 71.042969 3.539062 58.488281 3.542969 42.492188 C 14.304688 26.210938 44.5625 7.796875 44.730469 23.792969 C 44.800781 30.671875 63.832031 13.890625 71.902344 41.070312 Z M 71.902344 41.070312 "/>
<path style="fill-rule:nonzero;fill:rgb(57.647059%,61.568627%,67.45098%);fill-opacity:1;stroke-width:4;stroke-linecap:round;stroke-linejoin:round;stroke:rgb(0.392157%,0.392157%,0.392157%);stroke-opacity:1;stroke-miterlimit:4;" d="M 192.898459 91.985499 C 191.864742 77.576698 188.206083 64.055311 182.514835 52.086898 C 188.9262 47.287857 193.212058 38.787365 193.212058 29.119223 C 193.212058 14.14995 183.002656 1.994713 170.423837 1.994713 C 162.293483 1.994713 155.185231 7.10902 151.154898 14.733775 C 139.145203 6.64196 125.265527 1.994713 110.491513 1.994713 C 95.705883 1.994713 81.861051 6.64196 69.851357 14.733775 C 65.821024 7.10902 58.712772 1.994713 50.582417 1.994713 C 38.003598 1.994713 27.794196 14.14995 27.794196 29.119223 C 27.794196 38.799041 32.06844 47.287857 38.491419 52.086898 C 32.800171 64.055311 29.153127 77.576698 28.107796 91.985499 C 17.619639 103.019792 11.510258 116.260943 11.510258 130.51795 C 11.510258 168.910282 55.832303 200.016479 110.503127 200.016479 C 165.185566 200.016479 209.507611 168.910282 209.507611 130.51795 C 209.507611 116.260943 203.386616 103.019792 192.898459 91.985499 Z M 192.898459 91.985499 " transform="matrix(0.336317,0,0,0.334539,0,0.000658588)"/>
<path style=" stroke:none;fill-rule:nonzero;fill:rgb(0.392157%,0.392157%,0.392157%);fill-opacity:1;" d="M 54.84375 46.464844 C 53.546875 49.128906 51.160156 50.378906 49.519531 49.257812 C 47.878906 48.136719 47.605469 45.070312 48.902344 42.40625 C 50.203125 39.742188 52.585938 38.492188 54.226562 39.613281 C 55.867188 40.734375 56.140625 43.800781 54.84375 46.464844 Z M 54.84375 46.464844 "/>
<path style=" stroke:none;fill-rule:nonzero;fill:rgb(0.392157%,0.392157%,0.392157%);fill-opacity:1;" d="M 19.488281 46.464844 C 20.785156 49.128906 23.167969 50.378906 24.808594 49.257812 C 26.449219 48.136719 26.726562 45.070312 25.425781 42.40625 C 24.128906 39.742188 21.746094 38.492188 20.105469 39.613281 C 18.464844 40.734375 18.1875 43.800781 19.488281 46.464844 Z M 19.488281 46.464844 "/>
<path style="fill-rule:nonzero;fill:rgb(90.196078%,90.196078%,90.196078%);fill-opacity:1;stroke-width:4;stroke-linecap:round;stroke-linejoin:round;stroke:rgb(0.392157%,0.392157%,0.392157%);stroke-opacity:1;stroke-miterlimit:4;" d="M 169.668876 14.803834 C 165.104263 14.803834 161.108774 17.664576 158.832275 21.949852 C 165.82438 27.542895 171.840842 34.70059 176.544832 43.025934 C 180.133803 40.30531 182.514835 35.517945 182.514835 30.088372 C 182.514835 21.646263 176.765513 14.803834 169.668876 14.803834 Z M 169.668876 14.803834 " transform="matrix(0.336317,0,0,0.334539,0,0.000658588)"/>
<path style="fill-rule:nonzero;fill:rgb(90.196078%,90.196078%,90.196078%);fill-opacity:1;stroke-width:4;stroke-linecap:round;stroke-linejoin:round;stroke:rgb(0.392157%,0.392157%,0.392157%);stroke-opacity:1;stroke-miterlimit:4;" d="M 49.490627 14.803834 C 54.066855 14.803834 58.050728 17.664576 60.327228 21.949852 C 53.346738 27.542895 47.330276 34.70059 42.626285 43.025934 C 39.037315 40.30531 36.644668 35.517945 36.644668 30.088372 C 36.644668 21.646263 42.405604 14.803834 49.490627 14.803834 Z M 49.490627 14.803834 " transform="matrix(0.336317,0,0,0.334539,0,0.000658588)"/>
<path style="fill-rule:nonzero;fill:rgb(100%,100%,100%);fill-opacity:1;stroke-width:4;stroke-linecap:round;stroke-linejoin:round;stroke:rgb(0.392157%,0.392157%,0.392157%);stroke-opacity:1;stroke-miterlimit:4;" d="M 156.544161 73.805189 C 156.544161 86.322397 146.392833 96.469275 133.872088 96.469275 C 121.362957 96.469275 111.21163 86.322397 111.21163 73.805189 C 111.223244 61.276304 121.362957 51.129425 133.872088 51.129425 C 146.392833 51.129425 156.544161 61.276304 156.544161 73.805189 Z M 156.544161 73.805189 " transform="matrix(0.336317,0,0,0.334539,0,0.000658588)"/>
<path style=" stroke:none;fill-rule:nonzero;fill:rgb(0.392157%,0.392157%,0.392157%);fill-opacity:1;" d="M 45.871094 26.027344 C 45.871094 27.425781 44.734375 28.554688 43.328125 28.554688 C 41.925781 28.554688 40.789062 27.425781 40.789062 26.027344 C 40.789062 24.632812 41.925781 23.5 43.328125 23.5 C 44.734375 23.5 45.871094 24.632812 45.871094 26.027344 Z M 45.871094 26.027344 "/>
<path style="fill-rule:nonzero;fill:rgb(100%,100%,100%);fill-opacity:1;stroke-width:4;stroke-linecap:round;stroke-linejoin:round;stroke:rgb(0.392157%,0.392157%,0.392157%);stroke-opacity:1;stroke-miterlimit:4;" d="M 103.801393 73.805189 C 103.801393 86.322397 93.650065 96.469275 81.140934 96.469275 C 68.620189 96.469275 58.468861 86.322397 58.468861 73.805189 C 58.480476 61.276304 68.620189 51.129425 81.140934 51.129425 C 93.650065 51.129425 103.801393 61.276304 103.801393 73.805189 Z M 103.801393 73.805189 " transform="matrix(0.336317,0,0,0.334539,0,0.000658588)"/>
<path style=" stroke:none;fill-rule:nonzero;fill:rgb(0.392157%,0.392157%,0.392157%);fill-opacity:1;" d="M 31.734375 26.027344 C 31.734375 27.425781 30.597656 28.554688 29.195312 28.554688 C 27.792969 28.554688 26.652344 27.425781 26.652344 26.027344 C 26.65625 24.632812 27.792969 23.5 29.195312 23.5 C 30.597656 23.5 31.734375 24.632812 31.734375 26.027344 Z M 31.734375 26.027344 "/>
<path style=" stroke:none;fill-rule:nonzero;fill:rgb(0.392157%,0.392157%,0.392157%);fill-opacity:0.313725;" d="M 69.800781 39.148438 C 68.140625 55.066406 60.269531 61.015625 42.222656 63.011719 C 34.148438 63.90625 28.992188 64.796875 14.082031 60.671875 C 27.757812 67.808594 29.890625 66.246094 40.652344 66.582031 C 48.890625 66.835938 62.175781 63.125 68.789062 51.304688 C 72.488281 42.269531 70.128906 40.894531 69.800781 39.148438 Z M 69.800781 39.148438 "/>
<path style="fill-rule:nonzero;fill:rgb(100%,100%,100%);fill-opacity:1;stroke-width:4;stroke-linecap:butt;stroke-linejoin:round;stroke:rgb(0.392157%,0.392157%,0.392157%);stroke-opacity:1;stroke-miterlimit:4;" d="M 127.414264 177.25898 C 134.232147 176.161389 142.6761 171.397377 146.148923 167.298925 C 149.714664 163.095385 151.793711 182.268198 150.701921 184.895411 C 149.703049 187.312447 141.305555 191.53934 138.843219 191.212398 C 136.195046 190.850426 121.049358 178.286512 127.414264 177.25898 Z M 127.414264 177.25898 " transform="matrix(0.336317,0,0,0.334539,0,0.000658588)"/>
</g>
</svg>

<?xml version="1.0" encoding="UTF-8"?>
<svg width="223.07" height="275.34" viewBox="0 0 223.074 275.341" xmlns="http://www.w3.org/2000/svg">
 <path d="m221.07 147.27c0.018 60.508-49.028 109.57-109.54 109.57s-109.56-49.061-109.54-109.57c-0.019-60.508 49.028-109.57 109.54-109.57s109.56 49.061 109.54 109.57z" fill="#939dac" stroke="#010101" stroke-linecap="round" stroke-linejoin="round" stroke-width="4"/>
 <path d="m220.65 156.86c-20.835 45.696-66.936 77.469-120.44 77.469-30.327 0-58.251-10.211-80.563-27.375 19.534 30.03 53.378 49.875 91.875 49.875 57.279 0 104.29-43.948 109.13-99.969z" fill="#010101" fill-opacity=".3137"/>
 <path d="m14.479 247.77c-7e-3 22.68 18.377 25.569 41.057 25.569s41.063-2.89 41.058-25.569c6e-3 -22.68-19.15-35.199-41.058-41.069-34.08-9.132-41.063 18.39-41.057 41.069z" fill="#939dac" stroke="#010101" stroke-linecap="round" stroke-linejoin="round" stroke-width="4"/>
 <path d="m68.531,211.193c5.617,7.362 9.065,16.555 9.063,27.906 .007,26.823-18.383,30.25-41.063,30.25-3.51,0-6.904-.105-10.156-.344 7.439,3.611 17.751,4.344 29.156,4.344 22.68,0 41.069-2.913 41.063-25.594 .005-18.023-12.1-29.609-28.063-36.562z" fill="#010101" fill-opacity=".3137"/>
 <path d="m87.495 260.56c1.644 6.127-3.251 8.274-9.547 9.962s-11.607 2.273-13.248-3.854 2.129-12.462 8.424-14.149c6.296-1.689 12.73 1.913 14.371 8.041z" fill="#fff" stroke="#010101" stroke-linecap="round" stroke-linejoin="round" stroke-width="4"/>
 <path d="m46.054 267.2c-1.641 6.129-6.952 5.541-13.248 3.855s-11.19-3.836-9.547-9.963 8.075-9.729 14.371-8.041c6.295 1.687 10.067 8.022 8.424 14.149z" fill="#fff" stroke="#010101" stroke-linecap="round" stroke-linejoin="round" stroke-width="4"/>
 <path d="m66.336 266.19c2e-3 6.344-5.281 7.151-11.8 7.151s-11.801-0.808-11.799-7.151 5.281-11.487 11.799-11.487 11.802 5.144 11.8 11.487z" fill="#fff" stroke="#010101" stroke-linecap="round" stroke-linejoin="round" stroke-width="4"/>
 <path d="m208.59 247.77c6e-3 22.68-18.377 25.569-41.058 25.569s-41.064-2.89-41.057-25.569c-7e-3 -22.68 19.151-35.199 41.057-41.069 34.082-9.132 41.064 18.39 41.058 41.069z" fill="#939dac" stroke="#010101" stroke-linecap="round" stroke-linejoin="round" stroke-width="4"/>
 <path d="m200.5 260.56c1.644 6.127-3.251 8.274-9.547 9.962s-11.607 2.273-13.248-3.854 2.129-12.462 8.424-14.149 12.73 1.913 14.371 8.041z" fill="#fff" stroke="#010101" stroke-linecap="round" stroke-linejoin="round" stroke-width="4"/>
 <path d="m159.05 267.2c-1.641 6.129-6.952 5.541-13.248 3.855s-11.19-3.836-9.547-9.963 8.075-9.729 14.371-8.041c6.295 1.687 10.068 8.022 8.424 14.149z" fill="#fff" stroke="#010101" stroke-linecap="round" stroke-linejoin="round" stroke-width="4"/>
 <path d="m179.34 266.19c2e-3 6.344-5.281 7.151-11.8 7.151s-11.801-0.808-11.799-7.151 5.281-11.487 11.799-11.487 11.802 5.144 11.8 11.487z" fill="#fff" stroke="#010101" stroke-linecap="round" stroke-linejoin="round" stroke-width="4"/>
 <path d="m186.058,205.515c10.562,8.152 13.348,24.672 13.344,39.25 .007,23.469-19.008,26.469-42.469,26.469-5.091,0-9.945-.165-14.469-.625 6.935,2.22 15.622,2.719 25.063,2.719 22.68,0 41.069-2.882 41.063-25.563 .004-17.769-4.287-38.493-22.532-42.25z" fill="#010101" fill-opacity=".3137"/>
 <path d="m213.79 122.77c7 42-24.737 75.697-91.921 83.25-56.333 6.333-111.35-31.193-111.33-79 32-48.667 121.96-103.71 122.46-55.903 0.211 20.57 56.799-29.597 80.799 51.653z" fill="#010101" fill-opacity=".3137"/>
 <path d="m192.9 91.985c-1.039-14.407-4.696-27.927-10.387-39.897 6.41-4.801 10.701-13.3 10.701-22.971 0-14.967-10.213-27.117-22.788-27.117-8.129 0-15.236 5.104-19.269 12.733-12.013-8.094-25.888-12.733-40.669-12.733s-28.625 4.643-40.636 12.733c-4.032-7.629-11.14-12.733-19.269-12.733-12.576 0-22.788 12.15-22.788 27.117 0 9.684 4.276 18.174 10.701 22.971-5.691 11.97-9.348 25.491-10.387 39.899-10.487 11.029-16.604 24.279-16.604 38.535 0 38.384 44.323 69.5 99 69.5s99-31.116 99-69.5c0-14.256-6.118-27.507-16.605-38.537z" fill="#939dac" stroke="#010101" stroke-linecap="round" stroke-linejoin="round" stroke-width="4"/>
 <path d="m163.07 138.89c-3.86 7.963-10.946 11.702-15.825 8.35s-5.7-12.521-1.837-20.482 10.948-11.698 15.825-8.348 5.7 12.521 1.837 20.48z" fill="#010101"/>
 <path d="m57.941 138.89c3.86 7.963 10.948 11.702 15.825 8.35s5.7-12.521 1.835-20.482c-3.858-7.96-10.946-11.698-15.823-8.348s-5.7 12.521-1.837 20.48z" fill="#010101"/>
 <path d="m169.67 14.799c-4.57 0-8.562 2.865-10.839 7.147 6.99 5.602 13.007 12.755 17.711 21.075 3.587-2.712 5.978-7.503 5.978-12.931-1e-3 -8.438-5.759-15.291-12.85-15.291z" fill="#e6e6e6" stroke="#010101" stroke-linecap="round" stroke-linejoin="round" stroke-width="4"/>
 <path d="m49.493 14.799c4.57 0 8.562 2.865 10.839 7.147-6.989 5.602-13.007 12.755-17.71 21.075-3.588-2.712-5.979-7.503-5.979-12.931 0-8.438 5.759-15.291 12.85-15.291z" fill="#e6e6e6" stroke="#010101" stroke-linecap="round" stroke-linejoin="round" stroke-width="4"/>
 <path d="m156.54 73.801c3e-3 12.519-10.145 22.669-22.663 22.669s-22.667-10.15-22.663-22.669 10.144-22.669 22.663-22.669 22.666 10.15 22.663 22.669z" fill="#fff" stroke="#010101" stroke-linecap="round" stroke-linejoin="round" stroke-width="4"/>
 <path d="m136.39 77.801c2e-3 4.173-3.381 7.557-7.554 7.557s-7.556-3.384-7.555-7.557 3.382-7.557 7.555-7.557 7.556 3.384 7.554 7.557z" fill="#010101"/>
 <path d="m103.8 73.801c4e-3 12.519-10.145 22.669-22.663 22.669s-22.666-10.15-22.663-22.669 10.145-22.669 22.663-22.669 22.667 10.15 22.663 22.669z" fill="#fff" stroke="#010101" stroke-linecap="round" stroke-linejoin="round" stroke-width="4"/>
 <path d="m94.362 77.801c2e-3 4.173-3.381 7.557-7.554 7.557s-7.556-3.384-7.555-7.557 3.382-7.557 7.555-7.557 7.556 3.384 7.554 7.557z" fill="#010101"/>
 <path d="m207.54 117.02c-4.93 47.578-28.332 65.369-82 71.333-24 2.667-39.333 5.334-83.667-7 40.667 21.334 47 16.667 79 17.667 24.501 0.766 64-10.334 83.667-45.667 11-27 3.98-31.113 3-36.333z" fill="#010101" fill-opacity=".3137"/>
 <path d="m127.42 177.26c6.811-1.1 15.261-5.862 18.729-9.961 3.561-4.207 5.645 14.967 4.555 17.599-0.999 2.414-9.403 6.644-11.862 6.31-2.645-0.359-17.792-12.921-11.422-13.948z" fill="#fff" stroke="#010101" stroke-linejoin="round" stroke-width="4"/>
</svg>
